icons/haxe/haxe-original.svg

<svg xmlns="http://www.w3.org/2000/svg" viewBox="0 0 128 128"><path fill="#F6B214" d="M15.7 64l48.4-48.4L0 0z"/><path fill="#F17321" d="M64 15.7l48.4 48.4L128 0z"/><path fill="#EF5E21" d="M112.3 64l-48.4 48.4L128 128z"/><path fill="#F6B214" d="M64 112.3L15.6 63.9 0 128z"/><path fill="#EA8220" d="M15.6 63.9L64 15.7 112.3 64 64 112.3z"/><path fill="#F8EF23" d="M15.6 63.9L0 32V0zM0 128V96l15.6-32.1z"/><path fill="#F8C713" d="M0 0h32l32 15.7zM128 0L64 15.7 96 0z"/><path fill="#EC4822" d="M112.3 64L128 0v32zM128 128V96l-15.7-32z"/><path fill="#EF5E21" d="M0 128l64-15.7L32 128z"/><path fill="#EA8220" d="M128 128H96l-32-15.7z"/></svg>

<svg xmlns="http://www.w3.org/2000/svg" viewBox="0 0 128 128"><path fill="#F6B214" d="M 15.7,64 64.1,15.6 0,0  z"/><path fill="#F17321" d="M 64,15.7 112.4,64.1 128,0  z"/><path fill="#EF5E21" d="M 112.3,64 63.9,112.4 128,128  z"/><path fill="#F6B214" d="M 64,112.3 15.6,63.9 0,128  z"/><path fill="#EA8220" d="M 15.6,63.9 64,15.7 112.3,64 64,112.3  z"/><path fill="#F8EF23" d="M 15.6,63.9 0,32 0,0  z"/><path fill="#F8EF23" d="M 0,128 0,96 15.6,63.9  z"/><path fill="#F8C713" d="M 0,0 32,0 64,15.7  z"/><path fill="#F8C713" d="M 128,0 64,15.7 96,0  z"/><path fill="#EC4822" d="M 112.3,64 128,0 128,32  z"/><path fill="#EC4822" d="M 128,128 128,96 112.3,64  z"/><path fill="#EF5E21" d="M 0,128 64,112.3 32,128  z"/><path fill="#EA8220" d="M 128,128 96,128 64,112.3  z"/></svg>
